lib/healthicons/icons/outline/symbols/openMRS_logo.svg

<svg fill="none" height="48" viewBox="0 0 48 48" width="48" xmlns="http://www.w3.org/2000/svg"><path clip-rule="evenodd" d="m15.3012 7.19155c2.5884-1.33365 5.5601-2.19155 8.7105-2.19155 3.1294 0 6.0868.75752 8.6926 2.09998.3332.17166.5424.51522.542.89004l-.0073 6.76658 6.7728.0051c.3742.0003.7169.2094.8882.5421 1.3429 2.607 2.1004 5.5644 2.1004 8.6954 0 3.1293-.7575 6.0867-2.1 8.6925-.1717.3332-.5152.5424-.89.542l-6.774-.0072-.0051 6.785c-.0003.3741-.2093.7168-.5419.8882-2.6059 1.3429-5.5629 2.1004-8.6939 2.1004s-6.0871-.7575-8.694-2.0998c-.3333-.1717-.5426-.5153-.5422-.8902l.0072-6.7774-6.77778-.0044c-.3742-.0002-.71695-.2094-.88833-.542-1.34287-2.6067-2.10039-5.5641-2.10039-8.6946 0-3.1311.75754-6.0871 2.09944-8.6936.1716-.3333.51522-.5426.89011-.5422l6.77765.0069-.0079-6.68112c-.0005-.37484.2087-.71845.5419-.89013zm-1.681 9.57005-5.00994-.0051c-1.03251 2.1946-1.61026 4.6458-1.61026 7.2352 0 2.5895.57799 5.0422 1.61141 7.237l5.01639.0032c-1.4329-2.0508-2.2744-4.5472-2.2744-7.2402 0-2.688.8387-5.1805 2.2668-7.2301zm2.9438 14.8676c-.0273-.036-.0573-.0704-.0898-.103-1.929-1.9289-3.1208-4.5907-3.1208-7.5345 0-2.8808 1.1417-5.4924 2.999-7.4124.0433-.0312.0846-.0661.1231-.1047 1.9289-1.9289 4.5922-3.1208 7.5362-3.1208 2.8963 0 5.521 1.1544 7.4421 3.029.0224.0278.0464.0546.0721.0802 1.9291 1.9288 3.1207 4.5921 3.1207 7.5362 0 2.9145-1.1686 5.5544-3.0647 7.4781-.0178.0154-.0351.0315-.0519.0483-1.9289 1.9293-4.591 3.1207-7.5345 3.1207-2.8905 0-5.5103-1.149-7.4315-3.0171zm.2013 2.7507-.0054 5.0096c2.1949 1.0329 4.6462 1.6106 7.2356 1.6106 2.5899 0 5.0422-.578 7.2363-1.6113l.0037-5.0165c-2.0509 1.4328-4.5475 2.274-7.24 2.274-2.6878 0-5.1806-.8383-7.2302-2.2664zm17.6153-3.1522 5.0093.0054c1.0327-2.1939 1.6105-4.6461 1.6105-7.2339 0-2.59-.578-5.0427-1.6115-7.238l-5.0165-.0037c1.433 2.0514 2.2742 4.5488 2.2742 7.2417 0 2.687-.8381 5.1797-2.266 7.2285zm-3.1403-17.6078.0053-5.00941c-2.1939-1.03272-4.646-1.61049-7.2339-1.61049-2.5732 0-5.039.64771-7.2517 1.70055l.0059 4.93055c2.0521-1.4347 4.5511-2.2773 7.2458-2.2773 2.6872 0 5.1797.8384 7.2286 2.2661z" fill="#333" fill-rule="evenodd"/></svg>

<svg width="48" height="48" viewBox="0 0 48 48" fill="none" xmlns="http://www.w3.org/2000/svg">
<path fill-rule="evenodd" clip-rule="evenodd" d="M15.3012 7.19155C17.8896 5.8579 20.8613 5 24.0117 5C27.1411 5 30.0985 5.75752 32.7043 7.09998C33.0375 7.27164 33.2467 7.6152 33.2463 7.99002L33.239 14.7566L40.0118 14.7617C40.386 14.762 40.7287 14.9711 40.9 15.3038C42.2429 17.9108 43.0004 20.8682 43.0004 23.9992C43.0004 27.1285 42.2429 30.0859 40.9004 32.6917C40.7287 33.0249 40.3852 33.2341 40.0104 33.2337L33.2364 33.2265L33.2313 40.0115C33.231 40.3856 33.022 40.7283 32.6894 40.8997C30.0835 42.2426 27.1265 43.0001 23.9955 43.0001C20.8645 43.0001 17.9084 42.2426 15.3015 40.9003C14.9682 40.7286 14.7589 40.385 14.7593 40.0101L14.7665 33.2327L7.98872 33.2283C7.61452 33.2281 7.27177 33.0189 7.10039 32.6863C5.75752 30.0796 5 27.1222 5 23.9917C5 20.8606 5.75754 17.9046 7.09944 15.2981C7.27104 14.9648 7.61466 14.7555 7.98955 14.7559L14.7672 14.7628L14.7593 8.08168C14.7588 7.70684 14.968 7.36323 15.3012 7.19155ZM13.6202 16.7616L8.61026 16.7565C7.57775 18.9511 7 21.4023 7 23.9917C7 26.5812 7.57799 29.0339 8.61141 31.2287L13.6278 31.2319C12.1949 29.1811 11.3534 26.6847 11.3534 23.9917C11.3534 21.3037 12.1921 18.8112 13.6202 16.7616ZM16.564 31.6292C16.5367 31.5932 16.5067 31.5588 16.4742 31.5262C14.5452 29.5973 13.3534 26.9355 13.3534 23.9917C13.3534 21.1109 14.4951 18.4993 16.3524 16.5793C16.3957 16.5481 16.437 16.5132 16.4755 16.4746C18.4044 14.5457 21.0677 13.3538 24.0117 13.3538C26.908 13.3538 29.5327 14.5082 31.4538 16.3828C31.4762 16.4106 31.5002 16.4374 31.5259 16.463C33.455 18.3918 34.6466 21.0551 34.6466 23.9992C34.6466 26.9137 33.478 29.5536 31.5819 31.4773C31.5641 31.4927 31.5468 31.5088 31.53 31.5256C29.6011 33.4549 26.939 34.6463 23.9955 34.6463C21.105 34.6463 18.4852 33.4973 16.564 31.6292ZM16.7653 34.3799L16.7599 39.3895C18.9548 40.4224 21.4061 41.0001 23.9955 41.0001C26.5854 41.0001 29.0377 40.4221 31.2318 39.3888L31.2355 34.3723C29.1846 35.8051 26.688 36.6463 23.9955 36.6463C21.3077 36.6463 18.8149 35.808 16.7653 34.3799ZM34.3806 31.2277L39.3899 31.2331C40.4226 29.0392 41.0004 26.587 41.0004 23.9992C41.0004 21.4092 40.4224 18.9565 39.3889 16.7612L34.3724 16.7575C35.8054 18.8089 36.6466 21.3063 36.6466 23.9992C36.6466 26.6862 35.8085 29.1789 34.3806 31.2277ZM31.2403 13.6199L31.2456 8.61049C29.0517 7.57777 26.5996 7 24.0117 7C21.4385 7 18.9727 7.64771 16.76 8.70055L16.7659 13.6311C18.818 12.1964 21.317 11.3538 24.0117 11.3538C26.6989 11.3538 29.1914 12.1922 31.2403 13.6199Z" fill="#333333"/>
</svg>
